; HEADER_BLOCK_START
; generated by OrcaSlicer 2.3.0 on 2026-01-25 at 17:33:17
; total layer number: 15
;_GP_TOTAL_LAYER_NUMBER_PLACEHOLDER
; filament_density: 1.24
; filament_diameter: 1.75
; max_z_height: 3.00
; HEADER_BLOCK_END

; THUMBNAIL_BLOCK_START

;
; THUMBNAIL_BLOCK_END

; THUMBNAIL_BLOCK_START

;
; THUMBNAIL_BLOCK_END

; external perimeters extrusion width = 0.45mm
; perimeters extrusion width = 0.45mm
; infill extrusion width = 0.45mm
; solid infill extrusion width = 0.45mm
; top infill extrusion width = 0.40mm
; support material extrusion width = 0.38mm
; first layer extrusion width = 0.42mm

; EXECUTABLE_BLOCK_START
M73 P0 R258
M201 X500 Y500 Z100 E5000
M203 X500 Y500 Z10 E60
M204 P500 R1000 T500
M205 X8.00 Y8.00 Z0.40 E5.00 ; sets the jerk limits, mm/sec
;TYPE:Custom
G90 ; use absolute coordinates
M83 ; extruder relative mode
M420 S1 ; Enable bed leveling
M104 S220 ; set extruder temp
M140 S70 ; set bed temp
M190 S70 ; wait for bed temp
M109 S220 ; wait for extruder temp
G28 ; home all
G1 Z2 F240
G1 X2 Y10 F3000
G1 Z0.28 F240
G92 E0
G1 Y190 E15 F1500 ; intro line
G1 X2.3 F5000
G92 E0
G1 Y10 E15 F1200 ; intro line
G92 E0
G90
G21
M83 ; use relative distances for extrusion
; filament start gcode
M106 S0
;LAYER_CHANGE
;Z:0.2
;HEIGHT:0.2
;BEFORE_LAYER_CHANGE
;0.2
G92 E0

G1 E-5 F3000
;_SET_FAN_SPEED_CHANGING_LAYER
G1 X103.527 Y68.815 F9000
G1 Z.2
G1 E5 F2400
;TYPE:Skirt
;WIDTH:0.42
G1 F1200
G1 X115.899 Y32.145 E1.18914
G1 X116.565 Y30.783 E.04662
G1 X117.427 Y29.534 E.04662
G1 X118.464 Y28.426 E.04662
G1 X119.654 Y27.486 E.04662
G1 X120.971 Y26.732 E.04662
G1 X122.385 Y26.182 E.04662
G1 X123.865 Y25.849 E.04662
G1 X125.736 Y25.746 E.05757
G1 X126.784 Y25.839 E.03231
G1 X127.83 Y26.042 E.03276
G1 X192.411 Y42.198 E2.04553
G1 X194.252 Y42.947 E.06108
M73 P0 R257
G1 X195.913 Y44.039 E.06108
G1 X197.074 Y45.138 E.04912
G1 X198.256 Y46.736 E.06108
G1 X199.068 Y48.433 E.05781
G1 X199.493 Y49.919 E.04748
G1 X214.031 Y121.048 E2.23077
G1 X214.101 Y122.236 E.03659
G1 X214.101 Y177.764 E1.7062
G1 X214.031 Y178.952 E.03659
G1 X213.894 Y179.809 E.02667
G1 X199.481 Y250.133 E2.20577
G1 X199.104 Y251.466 E.04257
G1 X198.501 Y252.83 E.04584
G1 X197.93 Y253.773 E.03386
G1 X197.002 Y254.941 E.04584
G1 X195.913 Y255.961 E.04584
G1 X194.687 Y256.811 E.04584
G1 X193.35 Y257.473 E.04584
G1 X192.034 Y257.906 E.04257
G1 X127.83 Y273.958 E2.03352
G1 X126.784 Y274.161 E.03276
G1 X125.379 Y274.261 E.04329
G1 X123.865 Y274.151 E.04662
G1 X122.385 Y273.818 E.04662
G1 X120.971 Y273.268 E.04662
G1 X119.655 Y272.514 E.04662
G1 X118.464 Y271.574 E.04662
G1 X117.427 Y270.466 E.04662
G1 X116.565 Y269.218 E.04662
G1 X115.899 Y267.855 E.04662
G1 X86.185 Y179.657 E2.85972
G1 X85.991 Y178.628 E.0322
G1 X85.899 Y177.263 E.04204
G1 X85.899 Y122.737 E1.6754
G1 X86.005 Y121.272 E.04516
G1 X86.433 Y119.482 E.05654
G1 X103.515 Y68.853 E1.64186
; printing object output.stl id:0 copy 0
G1 E-3.5 F3000
;WIPE_START
G1 F1200
G1 X103.834 Y67.905 E-1.5
;WIPE_END
G1 X121.167 Y30.404 F9000
G1 E5 F2400
;TYPE:Inner wall
;WIDTH:0.419999
G1 F900
G1 X122.044 Y29.837 E.03209
G1 X122.653 Y29.542 E.02079
G1 X123.3 Y29.305 E.02117
G1 X123.956 Y29.136 E.02081
G1 X125.003 Y29.002 E.03245
G1 X125.667 Y28.999 E.02042
G1 X126.366 Y29.066 E.02156
G1 X127.066 Y29.204 E.02192
G1 X191.52 Y45.327 E2.04151
G1 X192.158 Y45.555 E.02081
G1 X192.771 Y45.844 E.02081
G1 X193.352 Y46.191 E.02081
G1 X193.897 Y46.593 E.02082
G1 X194.383 Y47.03 E.02008
G1 X194.829 Y47.543 E.02089
G1 X195.28 Y48.131 E.02276
G1 X195.614 Y48.688 E.01995
G1 X195.904 Y49.299 E.02078
G1 X196.161 Y50.024 E.02365
G1 X196.309 Y50.585 E.01782
G1 X210.6 Y120.319 E2.18726
G1 X210.745 Y121.081 E.02384
G1 X210.822 Y121.717 E.01967
G1 X210.848 Y122.247 E.01632
G1 X210.848 Y177.734 E1.70495
G1 X210.795 Y178.612 E.02704
G1 X210.703 Y179.176 E.01756
G1 X196.311 Y249.403 E2.20273
G1 X196.137 Y250.084 E.02157
G1 X195.909 Y250.71 E.02047
G1 X195.438 Y251.635 E.03191
G1 X195.066 Y252.187 E.02044
G1 X194.635 Y252.709 E.02082
G1 X194.162 Y253.178 E.02047
G1 X193.634 Y253.589 E.02055
G1 X193.025 Y254.005 E.02267
G1 X192.449 Y254.308 E.01999
G1 X191.735 Y254.596 E.02364
G1 X191.181 Y254.767 E.01783
G1 X127.066 Y270.796 E2.03071
G1 X126.365 Y270.935 E.02194
G1 X125.691 Y270.999 E.02081
G1 X124.647 Y270.97 E.03209
G1 X123.631 Y270.788 E.03172
G1 X122.642 Y270.453 E.03209
G1 X122.033 Y270.158 E.02079
G1 X121.455 Y269.804 E.02082
G1 X120.64 Y269.152 E.03209
G1 X119.938 Y268.395 E.03172
G1 X119.356 Y267.542 E.03172
G1 X118.903 Y266.601 E.03208
G1 X89.523 Y179.501 E2.82451
G1 X89.342 Y178.869 E.02019
G1 X89.182 Y177.895 E.03034
G1 X89.152 Y177.239 E.02018
G1 X89.152 Y122.772 E1.67362
G1 X89.222 Y121.763 E.03106
M73 P0 R256
G1 X89.339 Y121.141 E.01945
G1 X89.523 Y120.499 E.02052
G1 X118.903 Y33.398 E2.82451
G1 X119.356 Y32.458 E.03209
G1 X119.945 Y31.595 E.03208
G1 X120.385 Y31.096 E.02045
G1 X121.137 Y30.431 E.03086
G1 X120.939 Y30.103 F9000
G1 F900
G1 X121.858 Y29.507 E.03367
G1 X122.505 Y29.194 E.02208
G1 X123.188 Y28.944 E.02233
G1 X123.884 Y28.765 E.02211
G1 X124.978 Y28.625 E.03388
G1 X125.685 Y28.622 E.02171
G1 X126.421 Y28.692 E.02272
G1 X127.148 Y28.836 E.02279
G1 X191.629 Y44.966 E2.04237
G1 X192.302 Y45.206 E.02195
G1 X192.948 Y45.51 E.02194
G1 X193.561 Y45.876 E.02195
G1 X194.136 Y46.301 E.02195
G1 X194.652 Y46.766 E.02135
G1 X195.114 Y47.296 E.02159
G1 X195.593 Y47.92 E.02419
G1 X195.946 Y48.509 E.02108
G1 X196.252 Y49.153 E.02191
G1 X196.522 Y49.913 E.02478
G1 X196.677 Y50.505 E.01881
G1 X210.969 Y120.243 E2.18741
G1 X211.117 Y121.02 E.0243
G1 X211.201 Y121.725 E.0218
G1 X211.225 Y122.243 E.01595
G1 X211.225 Y177.745 E1.70542
G1 X211.17 Y178.654 E.02797
G1 X211.074 Y179.244 E.01838
G1 X196.679 Y249.488 E2.20325
G1 X196.497 Y250.195 E.02242
G1 X196.256 Y250.86 E.02174
G1 X195.764 Y251.827 E.03333
G1 X195.369 Y252.413 E.02171
G1 X194.913 Y252.963 E.02195
G1 X194.412 Y253.462 E.02174
G1 X193.865 Y253.886 E.02126
G1 X193.218 Y254.329 E.02409
G1 X192.61 Y254.649 E.02112
G1 X191.862 Y254.951 E.02478
G1 X191.277 Y255.132 E.01882
G1 X127.148 Y271.164 E2.03114
G1 X126.42 Y271.308 E.0228
G1 X125.704 Y271.377 E.02211
G1 X124.609 Y271.346 E.03367
G1 X123.537 Y271.154 E.03345
G1 X122.499 Y270.802 E.03367
G1 X121.852 Y270.489 E.02208
G1 X121.238 Y270.113 E.02212
G1 X120.382 Y269.429 E.03367
G1 X119.642 Y268.631 E.03346
G1 X119.029 Y267.731 E.03345
G1 X118.553 Y266.744 E.03367
G1 X89.163 Y179.613 E2.8255
G1 X88.973 Y178.952 E.02113
G1 X88.806 Y177.934 E.03169
G1 X88.775 Y177.248 E.02112
G1 X88.775 Y122.759 E1.6743
G1 X88.847 Y121.715 E.03214
G1 X88.972 Y121.054 E.02067
G1 X89.163 Y120.387 E.02133
G1 X118.553 Y33.256 E2.8255
G1 X119.029 Y32.269 E.03367
G1 X119.646 Y31.363 E.03366
G1 X120.118 Y30.829 E.02189
G1 X120.909 Y30.13 E.03244
G1 X120.71 Y29.802 F9000
;TYPE:Outer wall
G1 F900
G1 X121.673 Y29.178 E.03526
G1 X122.358 Y28.847 E.02338
G1 X123.075 Y28.584 E.02348
G1 X123.813 Y28.394 E.02341
G1 X124.953 Y28.248 E.03532
G1 X125.702 Y28.245 E.023
G1 X126.475 Y28.318 E.02387
G1 X127.231 Y28.468 E.02366
G1 X191.739 Y44.605 E2.04322
G1 X192.446 Y44.857 E.02308
G1 X193.125 Y45.177 E.02308
G1 X193.77 Y45.562 E.02308
G1 X194.375 Y46.008 E.02308
G1 X194.922 Y46.501 E.02262
G1 X195.672 Y47.363 E.03513
G1 X195.906 Y47.709 E.01283
G1 X196.277 Y48.329 E.02221
G1 X196.6 Y49.007 E.02305
G1 X196.882 Y49.801 E.02591
G1 X197.046 Y50.425 E.0198
G1 X211.338 Y120.168 E2.18755
G1 X211.489 Y120.96 E.02477
G1 X211.577 Y121.694 E.02274
G1 X211.603 Y122.239 E.01677
M73 P0 R255
G1 X211.603 Y177.757 E1.70589
G1 X211.546 Y178.696 E.02891
G1 X211.445 Y179.313 E.0192
G1 X197.046 Y249.573 E2.20376
G1 X196.858 Y250.307 E.02327
G1 X196.602 Y251.011 E.02302
G1 X196.089 Y252.018 E.03474
G1 X195.671 Y252.639 E.02299
G1 X195.192 Y253.218 E.02309
G1 X194.661 Y253.746 E.02302
G1 X193.768 Y254.439 E.03474
G1 X193.411 Y254.652 E.01277
G1 X192.771 Y254.99 E.02225
G1 X191.989 Y255.306 E.02591
G1 X191.373 Y255.497 E.01981
G1 X127.231 Y271.532 E2.03157
G1 X126.475 Y271.682 E.02367
M73 P1 R255
G1 X125.717 Y271.755 E.02341
G1 X124.57 Y271.722 E.03526
G1 X123.443 Y271.52 E.03518
G1 X122.356 Y271.152 E.03526
G1 X121.671 Y270.821 E.02338
G1 X121.021 Y270.422 E.02341
G1 X120.125 Y269.706 E.03526
G1 X119.346 Y268.866 E.03519
G1 X118.701 Y267.92 E.03519
G1 X118.203 Y266.887 E.03525
G1 X88.803 Y179.725 E2.82648
G1 X88.605 Y179.035 E.02207
G1 X88.431 Y177.974 E.03303
G1 X88.397 Y177.256 E.02207
G1 X88.397 Y122.745 E1.67497
G1 X88.473 Y121.667 E.03322
G1 X88.604 Y120.967 E.02188
G1 X88.803 Y120.275 E.02213
G1 X118.203 Y33.113 E2.82649
G1 X118.702 Y32.079 E.03526
G1 X119.348 Y31.132 E.03525
G1 X119.85 Y30.562 E.02333
G1 X120.68 Y29.829 E.03403
G1 E-3.5 F3000
;WIPE_START
G1 F900
G1 X121.517 Y29.281 E-1.5
;WIPE_END
G1 X169.892 Y72.668 F9000
G1 E5 F2400
;TYPE:Inner wall
G1 F900
G1 X169.707 Y72.637 E.00578
G1 X169.445 Y72.497 E.00912
G1 X169.257 Y72.305 E.00826
G1 X169.131 Y72.072 E.00814
G1 X169.073 Y71.746 E.01016
G1 X169.073 Y57.204 E.44686
G1 X169.123 Y56.902 E.00937
G1 X169.353 Y56.533 E.01337
G1 X169.598 Y56.359 E.00925
G1 X169.95 Y56.261 E.01123
G1 X184.559 Y56.261 E.44888
G1 X184.855 Y56.308 E.00921
G1 X185.118 Y56.445 E.0091
G1 X185.358 Y56.703 E.01084
G1 X185.502 Y57.062 E.01189
G1 X185.502 Y71.746 E.45121
G1 X185.444 Y72.071 E.01014
G1 X185.245 Y72.393 E.01161
G1 X184.947 Y72.606 E.01127
G1 X184.643 Y72.685 E.00965
G1 X170.016 Y72.689 E.44944
G1 X169.932 Y72.675 E.00262
G1 X169.954 Y72.302 F9000
G1 F900
G1 X169.831 Y72.281 E.00385
G1 X169.674 Y72.197 E.00547
G1 X169.485 Y71.942 E.00974
G1 X169.45 Y71.746 E.0061
G1 X169.45 Y57.204 E.44686
G1 X169.547 Y56.887 E.01016
G1 X169.765 Y56.697 E.00891
G1 X170.016 Y56.638 E.00791
G1 X184.559 Y56.638 E.44686
G1 X184.793 Y56.688 E.00734
G1 X185.003 Y56.853 E.00822
G1 X185.125 Y57.115 E.00886
G1 X185.125 Y71.746 E.44959
G1 X185.051 Y72.026 E.00888
G1 X184.866 Y72.221 E.00825
G1 X184.609 Y72.31 E.00836
G1 X170.016 Y72.312 E.44841
G1 X169.994 Y72.308 E.0007
G1 X170.016 Y71.935 F9000
;TYPE:Outer wall
G1 F900
G1 X169.864 Y71.858 E.00523
G1 X169.828 Y71.746 E.00361
G1 X169.828 Y57.204 E.44686
G1 X169.904 Y57.052 E.00521
G1 X169.968 Y57.015 E.00229
G1 X184.559 Y57.015 E.44832
G1 X184.694 Y57.072 E.0045
G1 X184.747 Y57.204 E.00437
G1 X184.747 Y71.746 E.44686
G1 X184.681 Y71.89 E.00486
G1 X184.559 Y71.935 E.004
G1 X170.056 Y71.935 E.44563
G1 E-3.5 F3000
;WIPE_START
G1 F900
G1 X169.864 Y71.858 E-.30994
G1 X169.828 Y71.746 E-.17646
G1 X169.828 Y71.071 E-1.0136
;WIPE_END
G1 X150.842 Y72.668 F9000
G1 E5 F2400
;TYPE:Inner wall
G1 F900
G1 X150.657 Y72.637 E.00578
G1 X150.395 Y72.497 E.00912
G1 X150.207 Y72.305 E.00826
G1 X150.081 Y72.072 E.00814
G1 X150.023 Y71.746 E.01016
G1 X150.023 Y57.204 E.44686
G1 X150.08 Y56.881 E.01006
G1 X150.204 Y56.649 E.00809
G1 X150.432 Y56.426 E.00979
G1 X150.819 Y56.261 E.01291
G1 X165.509 Y56.261 E.45139
G1 X165.877 Y56.336 E.01154
G1 X166.172 Y56.533 E.01091
G1 X166.402 Y56.902 E.01337
G1 X166.452 Y57.204 E.00937
G1 X166.452 Y71.746 E.44686
G1 X166.394 Y72.072 E.01016
G1 X166.268 Y72.305 E.00814
G1 X166.08 Y72.497 E.00826
G1 X165.639 Y72.689 E.01476
G1 X150.966 Y72.689 E.45087
G1 X150.882 Y72.675 E.00262
G1 X150.904 Y72.302 F9000
G1 F900
G1 X150.781 Y72.281 E.00385
G1 X150.624 Y72.197 E.00547
G1 X150.511 Y72.082 E.00495
G1 X150.4 Y71.79 E.00958
G1 X150.4 Y57.204 E.4482
G1 X150.435 Y57.01 E.00604
G1 X150.584 Y56.786 E.00827
G1 X150.867 Y56.638 E.00982
G1 X165.509 Y56.638 E.44991
G1 X165.76 Y56.697 E.00791
G1 X165.978 Y56.887 E.00891
G1 X166.075 Y57.204 E.01016
G1 X166.075 Y71.746 E.44686
G1 X166.04 Y71.942 E.0061
G1 X165.851 Y72.197 E.00974
G1 X165.587 Y72.312 E.00886
G1 X150.966 Y72.312 E.44927
G1 X150.944 Y72.308 E.0007
G1 X150.966 Y71.935 F9000
;TYPE:Outer wall
G1 F900
G1 X150.814 Y71.858 E.00523
G1 X150.778 Y71.746 E.00361
G1 X150.778 Y57.204 E.44686
G1 X150.839 Y57.064 E.00467
G1 X150.966 Y57.015 E.0042
G1 X165.509 Y57.015 E.44686
G1 X165.642 Y57.069 E.0044
G1 X165.698 Y57.204 E.00446
G1 X165.698 Y71.746 E.44686
G1 X165.623 Y71.897 E.00515
G1 X165.509 Y71.935 E.0037
G1 X151.006 Y71.935 E.44563
G1 E-3.5 F3000
;WIPE_START
G1 F900
G1 X150.814 Y71.858 E-.30994
G1 X150.778 Y71.746 E-.17646
G1 X150.778 Y71.071 E-1.0136
;WIPE_END
G1 X151.633 Y75.282 F9000
G1 E5 F2400
;TYPE:Inner wall
G1 F900
G1 X151.818 Y75.313 E.00578
G1 X152.08 Y75.453 E.00912
G1 X152.268 Y75.645 E.00826
G1 X152.394 Y75.878 E.00814
G1 X152.452 Y76.204 E.01016
G1 X152.452 Y90.746 E.44686
G1 X152.394 Y91.072 E.01016
G1 X152.268 Y91.305 E.00814
G1 X152.08 Y91.497 E.00826
G1 X151.639 Y91.689 E.01476
G1 X136.966 Y91.689 E.45087
G1 X136.657 Y91.637 E.00963
M73 P1 R254
G1 X136.395 Y91.497 E.00912
G1 X136.207 Y91.305 E.00826
G1 X136.081 Y91.072 E.00814
G1 X136.023 Y90.746 E.01016
G1 X136.023 Y76.204 E.44686
G1 X136.081 Y75.878 E.01016
G1 X136.207 Y75.645 E.00814
G1 X136.395 Y75.453 E.00826
G1 X136.657 Y75.313 E.00912
G1 X136.966 Y75.261 E.00963
G1 X151.509 Y75.261 E.44686
G1 X151.593 Y75.275 E.00262
G1 X151.571 Y75.648 F9000
G1 F900
G1 X151.694 Y75.669 E.00385
G1 X151.851 Y75.753 E.00547
G1 X152.04 Y76.008 E.00974
G1 X152.075 Y76.204 E.0061
G1 X152.075 Y90.746 E.44686
G1 X152.04 Y90.942 E.0061
G1 X151.851 Y91.197 E.00974
G1 X151.587 Y91.312 E.00886
G1 X136.966 Y91.312 E.44927
G1 X136.781 Y91.281 E.00578
G1 X136.624 Y91.197 E.00547
G1 X136.435 Y90.942 E.00974
G1 X136.4 Y90.746 E.0061
G1 X136.4 Y76.204 E.44686
G1 X136.435 Y76.008 E.0061
G1 X136.624 Y75.753 E.00974
G1 X136.781 Y75.669 E.00547
G1 X136.966 Y75.638 E.00578
G1 X151.509 Y75.638 E.44686
G1 X151.531 Y75.642 E.0007
G1 X151.509 Y76.015 F9000
;TYPE:Outer wall
G1 F900
G1 X151.623 Y76.053 E.0037
G1 X151.698 Y76.204 E.00515
G1 X151.698 Y90.746 E.44686
G1 X151.623 Y90.897 E.00515
G1 X151.509 Y90.935 E.0037
G1 X136.966 Y90.935 E.44686
G1 X136.814 Y90.858 E.00523
G1 X136.778 Y90.746 E.00361
G1 X136.778 Y76.204 E.44686
G1 X136.852 Y76.053 E.00515
G1 X136.924 Y76.015 E.0025
G1 X151.469 Y76.015 E.44694
G1 E-3.5 F3000
;WIPE_START
G1 F900
G1 X151.623 Y76.053 E-.2383
G1 X151.698 Y76.204 E-.25125
G1 X151.698 Y76.877 E-1.01046
;WIPE_END
G1 X146.867 Y72.568 F9000
G1 E5 F2400
;TYPE:Inner wall
G1 F900
G1 X146.589 Y72.689 E.00929
G1 X131.916 Y72.689 E.45087
G1 X131.61 Y72.638 E.00952
G1 X131.35 Y72.501 E.00904
G1 X131.162 Y72.312 E.00819
G1 X130.973 Y71.881 E.01445
G1 X130.973 Y57.198 E.45117
G1 X131.028 Y56.886 E.00974
G1 X131.203 Y56.586 E.01066
G1 X131.467 Y56.375 E.01038
G1 X131.827 Y56.265 E.01156
G1 X146.459 Y56.261 E.44961
G1 X146.803 Y56.326 E.01077
G1 X147.095 Y56.508 E.01058
G1 X147.221 Y56.649 E.00579
G1 X147.345 Y56.881 E.00809
G1 X147.402 Y57.204 E.01006
G1 X147.402 Y71.746 E.44686
G1 X147.344 Y72.072 E.01016
G1 X147.218 Y72.305 E.00814
G1 X147.03 Y72.497 E.00826
G1 X146.903 Y72.552 E.00424
G1 X146.864 Y72.112 F9000
G1 F900
G1 X146.801 Y72.197 E.00325
G1 X146.537 Y72.312 E.00886
G1 X131.916 Y72.312 E.44927
G1 X131.733 Y72.281 E.00571
G1 X131.464 Y72.086 E.01022
G1 X131.35 Y71.827 E.00867
G1 X131.35 Y57.2 E.44945
G1 X131.404 Y56.964 E.00746
G1 X131.576 Y56.751 E.00841
G1 X131.842 Y56.643 E.00881
G1 X146.459 Y56.638 E.44914
G1 X146.731 Y56.708 E.00864
G1 X146.916 Y56.871 E.00757
G1 X146.99 Y57.01 E.00485
G1 X147.025 Y57.204 E.00604
G1 X147.025 Y71.746 E.44686
G1 X146.99 Y71.942 E.0061
G1 X146.888 Y72.08 E.00526
G1 X146.573 Y71.897 F9000
;TYPE:Outer wall
G1 F900
G1 X146.459 Y71.935 E.0037
G1 X131.916 Y71.935 E.44686
G1 X131.765 Y71.86 E.00518
G1 X131.728 Y71.746 E.00366
G1 X131.728 Y57.202 E.4469
G1 X131.795 Y57.059 E.00487
G1 X131.916 Y57.015 E.00396
G1 X146.459 Y57.015 E.44686
G1 X146.586 Y57.064 E.0042
G1 X146.648 Y57.204 E.00467
G1 X146.648 Y71.746 E.44686
G1 X146.591 Y71.861 E.00392
G1 E-3.5 F3000
;WIPE_START
G1 F900
G1 X146.459 Y71.935 E-.22709
G1 X145.61 Y71.935 E-1.27291
;WIPE_END
G1 X117.794 Y91.669 F9000
G1 E5 F2400
;TYPE:Inner wall
G1 F900
G1 X117.61 Y91.638 E.00571
G1 X117.35 Y91.501 E.00904
G1 X117.162 Y91.312 E.00819
G1 X116.973 Y90.881 E.01445
G1 X116.973 Y76.204 E.451
G1 X117.03 Y75.88 E.01009
G1 X117.194 Y75.597 E.01004
G1 X117.427 Y75.398 E.00943
G1 X117.796 Y75.261 E.01209
