; HEADER_BLOCK_START
; generated by OrcaSlicer 2.3.0 on 2026-01-20 at 01:01:26
; total layer number: 15
;_GP_TOTAL_LAYER_NUMBER_PLACEHOLDER
; filament_density: 1.24
; filament_diameter: 1.75
; max_z_height: 3.00
; HEADER_BLOCK_END

; THUMBNAIL_BLOCK_START

;
; THUMBNAIL_BLOCK_END

; THUMBNAIL_BLOCK_START

;
; THUMBNAIL_BLOCK_END

; external perimeters extrusion width = 0.45mm
; perimeters extrusion width = 0.45mm
; infill extrusion width = 0.45mm
; solid infill extrusion width = 0.45mm
; top infill extrusion width = 0.40mm
; support material extrusion width = 0.38mm
; first layer extrusion width = 0.42mm

; EXECUTABLE_BLOCK_START
M73 P0 R259
M201 X500 Y500 Z100 E5000
M203 X500 Y500 Z10 E60
M204 P500 R1000 T500
M205 X8.00 Y8.00 Z0.40 E5.00 ; sets the jerk limits, mm/sec
;TYPE:Custom
G90 ; use absolute coordinates
M83 ; extruder relative mode
M420 S1 ; Enable bed leveling
M104 S220 ; set extruder temp
M140 S70 ; set bed temp
M190 S70 ; wait for bed temp
M109 S220 ; wait for extruder temp
G28 ; home all
G1 Z2 F240
G1 X2 Y10 F3000
G1 Z0.28 F240
G92 E0
G1 Y190 E15 F1500 ; intro line
G1 X2.3 F5000
G92 E0
G1 Y10 E15 F1200 ; intro line
G92 E0
G90
G21
M83 ; use relative distances for extrusion
; filament start gcode
M106 S0
;LAYER_CHANGE
;Z:0.2
;HEIGHT:0.2
;BEFORE_LAYER_CHANGE
;0.2
G92 E0

G1 E-5 F3000
;_SET_FAN_SPEED_CHANGING_LAYER
G1 X103.527 Y68.815 F9000
G1 Z.2
G1 E5 F2400
;TYPE:Skirt
;WIDTH:0.42
G1 F1200
G1 X115.899 Y32.145 E1.18914
G1 X116.565 Y30.783 E.04662
G1 X117.427 Y29.534 E.04662
G1 X118.464 Y28.426 E.04662
G1 X119.654 Y27.486 E.04662
G1 X120.971 Y26.732 E.04662
G1 X122.385 Y26.182 E.04662
G1 X123.865 Y25.849 E.04662
G1 X125.736 Y25.746 E.05757
G1 X126.784 Y25.839 E.03231
G1 X127.83 Y26.042 E.03276
G1 X192.411 Y42.198 E2.04553
G1 X194.252 Y42.947 E.06108
G1 X195.913 Y44.039 E.06108
G1 X197.074 Y45.138 E.04912
G1 X198.256 Y46.736 E.06108
G1 X199.068 Y48.433 E.05781
G1 X199.493 Y49.919 E.04748
G1 X214.031 Y121.048 E2.23077
G1 X214.101 Y122.236 E.03659
G1 X214.101 Y177.764 E1.7062
G1 X214.031 Y178.952 E.03659
G1 X213.894 Y179.809 E.02667
G1 X199.481 Y250.133 E2.20577
G1 X199.104 Y251.466 E.04257
G1 X198.501 Y252.83 E.04584
G1 X197.93 Y253.773 E.03386
G1 X197.002 Y254.941 E.04584
G1 X195.913 Y255.961 E.04584
G1 X194.687 Y256.811 E.04584
G1 X193.35 Y257.473 E.04584
G1 X192.034 Y257.906 E.04257
G1 X127.83 Y273.958 E2.03352
G1 X126.784 Y274.161 E.03276
G1 X125.379 Y274.261 E.04329
G1 X123.865 Y274.151 E.04662
G1 X122.385 Y273.818 E.04662
G1 X120.971 Y273.268 E.04662
G1 X119.655 Y272.514 E.04662
G1 X118.464 Y271.574 E.04662
G1 X117.427 Y270.466 E.04662
G1 X116.565 Y269.218 E.04662
G1 X115.899 Y267.855 E.04662
G1 X86.185 Y179.657 E2.85972
G1 X85.991 Y178.624 E.0323
G1 X85.899 Y177.263 E.04194
G1 X85.899 Y122.737 E1.6754
G1 X86.005 Y121.272 E.04516
G1 X86.433 Y119.482 E.05654
G1 X103.515 Y68.853 E1.64186
; printing object plate.stl id:1086626726142 copy 0
G1 E-3.5 F3000
M73 P0 R258
;WIPE_START
G1 F1200
G1 X103.834 Y67.905 E-1.5
;WIPE_END
G1 X121.167 Y30.404 F9000
G1 E5 F2400
;TYPE:Inner wall
;WIDTH:0.419999
G1 F900
G1 X122.044 Y29.837 E.03209
G1 X122.653 Y29.542 E.02079
G1 X123.3 Y29.305 E.02117
G1 X123.956 Y29.136 E.02081
G1 X125.003 Y29.002 E.03245
G1 X125.667 Y28.999 E.02042
G1 X126.366 Y29.066 E.02156
G1 X127.066 Y29.204 E.02192
G1 X191.52 Y45.327 E2.04151
G1 X192.158 Y45.555 E.02081
G1 X192.771 Y45.844 E.02081
G1 X193.352 Y46.191 E.02081
G1 X193.897 Y46.593 E.02082
G1 X194.383 Y47.03 E.02008
G1 X194.829 Y47.543 E.02089
G1 X195.28 Y48.131 E.02276
G1 X195.614 Y48.688 E.01995
G1 X195.902 Y49.294 E.02061
G1 X196.16 Y50.02 E.02369
G1 X196.309 Y50.585 E.01794
G1 X210.597 Y120.307 E2.18688
G1 X210.745 Y121.081 E.02422
G1 X210.826 Y121.755 E.02086
G1 X210.848 Y122.317 E.01728
G1 X210.848 Y177.734 E1.70279
G1 X210.795 Y178.612 E.02704
G1 X210.703 Y179.176 E.01756
G1 X196.311 Y249.403 E2.20273
G1 X196.137 Y250.084 E.02157
G1 X195.909 Y250.71 E.02047
G1 X195.438 Y251.635 E.03191
G1 X195.066 Y252.187 E.02044
G1 X194.635 Y252.709 E.02082
G1 X194.162 Y253.178 E.02047
G1 X193.634 Y253.589 E.02055
G1 X193.025 Y254.005 E.02267
G1 X192.449 Y254.308 E.01999
G1 X191.739 Y254.594 E.02352
G1 X191.181 Y254.767 E.01796
G1 X127.066 Y270.796 E2.03071
G1 X126.365 Y270.935 E.02194
G1 X125.691 Y270.999 E.02081
G1 X124.647 Y270.97 E.03209
G1 X123.631 Y270.788 E.03172
G1 X122.642 Y270.453 E.03209
G1 X122.033 Y270.158 E.02079
G1 X121.455 Y269.804 E.02082
G1 X120.64 Y269.152 E.03209
G1 X119.938 Y268.395 E.03172
G1 X119.356 Y267.542 E.03172
G1 X118.903 Y266.601 E.03208
G1 X89.584 Y179.683 E2.81861
G1 X89.428 Y179.169 E.01651
G1 X89.279 Y178.542 E.01977
G1 X89.182 Y177.815 E.02256
G1 X89.152 Y177.25 E.01738
G1 X89.152 Y122.772 E1.67397
G1 X89.222 Y121.763 E.03107
G1 X89.339 Y121.141 E.01945
G1 X89.523 Y120.499 E.02052
G1 X118.903 Y33.398 E2.82451
G1 X119.356 Y32.458 E.03209
G1 X119.945 Y31.595 E.03208
G1 X120.385 Y31.096 E.02045
G1 X121.137 Y30.431 E.03086
G1 X120.939 Y30.103 F9000
G1 F900
G1 X121.858 Y29.507 E.03367
G1 X122.505 Y29.194 E.02208
G1 X123.188 Y28.944 E.02233
G1 X123.884 Y28.765 E.02211
G1 X124.978 Y28.625 E.03388
G1 X125.685 Y28.622 E.02171
G1 X126.421 Y28.692 E.02272
G1 X127.148 Y28.836 E.02279
G1 X191.629 Y44.966 E2.04237
G1 X192.302 Y45.206 E.02195
G1 X192.948 Y45.51 E.02194
G1 X193.561 Y45.876 E.02195
G1 X194.136 Y46.301 E.02195
G1 X194.652 Y46.766 E.02135
G1 X195.114 Y47.296 E.02159
G1 X195.593 Y47.92 E.02419
G1 X195.946 Y48.509 E.02108
G1 X196.25 Y49.148 E.02175
G1 X196.52 Y49.909 E.02482
G1 X196.677 Y50.505 E.01894
G1 X210.966 Y120.231 E2.18702
G1 X211.117 Y121.02 E.02469
G1 X211.201 Y121.725 E.0218
G1 X211.225 Y122.317 E.01822
G1 X211.225 Y177.745 E1.70315
G1 X211.17 Y178.654 E.02797
G1 X211.074 Y179.244 E.01838
G1 X196.679 Y249.488 E2.20325
G1 X196.497 Y250.195 E.02242
M73 P0 R257
G1 X196.256 Y250.86 E.02174
G1 X195.764 Y251.827 E.03333
G1 X195.369 Y252.413 E.02171
G1 X194.913 Y252.963 E.02195
G1 X194.412 Y253.462 E.02174
G1 X193.865 Y253.886 E.02126
G1 X193.218 Y254.329 E.02409
G1 X192.61 Y254.649 E.02112
G1 X191.866 Y254.95 E.02465
G1 X191.277 Y255.132 E.01895
G1 X127.148 Y271.164 E2.03114
G1 X126.42 Y271.308 E.0228
G1 X125.704 Y271.377 E.02211
G1 X124.609 Y271.346 E.03367
G1 X123.537 Y271.154 E.03345
G1 X122.499 Y270.802 E.03367
G1 X121.852 Y270.489 E.02208
G1 X121.238 Y270.113 E.02212
G1 X120.382 Y269.429 E.03367
G1 X119.642 Y268.631 E.03346
G1 X119.029 Y267.731 E.03345
G1 X118.553 Y266.744 E.03367
G1 X89.227 Y179.803 E2.81933
G1 X89.065 Y179.272 E.01705
G1 X88.909 Y178.612 E.02085
G1 X88.806 Y177.85 E.02363
G1 X88.775 Y177.255 E.01832
G1 X88.775 Y122.759 E1.6745
G1 X88.847 Y121.715 E.03214
G1 X88.972 Y121.054 E.02066
G1 X89.163 Y120.387 E.02133
G1 X118.553 Y33.256 E2.8255
G1 X119.029 Y32.269 E.03367
G1 X119.646 Y31.363 E.03366
G1 X120.118 Y30.829 E.02189
G1 X120.909 Y30.13 E.03244
G1 X120.71 Y29.802 F9000
;TYPE:Outer wall
G1 F900
G1 X121.673 Y29.178 E.03526
G1 X122.358 Y28.847 E.02338
G1 X123.075 Y28.584 E.02348
G1 X123.813 Y28.394 E.02341
G1 X124.953 Y28.248 E.03532
G1 X125.702 Y28.245 E.023
G1 X126.475 Y28.318 E.02387
G1 X127.231 Y28.468 E.02366
G1 X191.739 Y44.605 E2.04322
G1 X192.446 Y44.857 E.02308
G1 X193.125 Y45.177 E.02308
G1 X193.77 Y45.562 E.02308
G1 X194.375 Y46.008 E.02308
G1 X194.922 Y46.501 E.02262
G1 X195.672 Y47.363 E.03513
G1 X195.906 Y47.709 E.01283
G1 X196.277 Y48.33 E.02221
G1 X196.597 Y49.002 E.02288
G1 X196.881 Y49.797 E.02595
G1 X197.046 Y50.425 E.01993
G1 X211.336 Y120.155 E2.18716
G1 X211.489 Y120.96 E.02516
G1 X211.577 Y121.694 E.02274
G1 X211.603 Y122.317 E.01916
G1 X211.603 Y177.757 E1.7035
G1 X211.546 Y178.696 E.02891
G1 X211.445 Y179.313 E.0192
G1 X197.046 Y249.573 E2.20376
G1 X196.858 Y250.307 E.02327
G1 X196.602 Y251.011 E.02302
G1 X196.089 Y252.018 E.03474
G1 X195.671 Y252.639 E.02299
G1 X195.192 Y253.218 E.02309
G1 X194.661 Y253.746 E.02302
G1 X193.768 Y254.439 E.03474
G1 X193.411 Y254.652 E.01277
G1 X192.771 Y254.99 E.02225
G1 X191.993 Y255.305 E.02579
G1 X191.373 Y255.497 E.01994
G1 X127.231 Y271.532 E2.03157
G1 X126.475 Y271.682 E.02367
M73 P1 R257
G1 X125.717 Y271.755 E.02341
G1 X124.57 Y271.722 E.03526
G1 X123.443 Y271.52 E.03518
G1 X122.356 Y271.152 E.03526
G1 X121.671 Y270.821 E.02338
G1 X121.021 Y270.422 E.02341
G1 X120.125 Y269.706 E.03526
G1 X119.346 Y268.866 E.03519
G1 X118.701 Y267.92 E.03519
G1 X118.203 Y266.887 E.03525
G1 X88.869 Y179.924 E2.82005
G1 X88.703 Y179.376 E.01759
G1 X88.538 Y178.682 E.02193
G1 X88.431 Y177.885 E.02471
G1 X88.397 Y177.259 E.01926
G1 X88.397 Y122.745 E1.67504
G1 X88.473 Y121.667 E.03322
G1 X88.604 Y120.967 E.02188
G1 X88.803 Y120.275 E.02214
G1 X118.203 Y33.113 E2.82649
G1 X118.702 Y32.079 E.03526
M73 P1 R256
G1 X119.348 Y31.132 E.03525
G1 X119.85 Y30.562 E.02333
G1 X120.68 Y29.829 E.03403
G1 E-3.5 F3000
;WIPE_START
G1 F900
G1 X121.517 Y29.281 E-1.5
;WIPE_END
G1 X176.125 Y148.528 F9000
G1 E5 F2400
;TYPE:Inner wall
G1 F900
G1 X175.987 Y148.511 E.00425
G1 X175.65 Y148.351 E.01147
G1 X175.462 Y148.162 E.00819
G1 X175.301 Y147.825 E.01147
G1 X175.273 Y147.596 E.00708
G1 X175.273 Y133.354 E.43764
G1 X175.335 Y133.018 E.01048
G1 X175.56 Y132.677 E.01254
G1 X175.873 Y132.475 E.01146
G1 X176.216 Y132.411 E.01073
G1 X190.459 Y132.411 E.43763
G1 X190.622 Y132.425 E.00503
G1 X190.939 Y132.542 E.01039
G1 X191.203 Y132.775 E.01081
G1 X191.359 Y133.073 E.01032
G1 X191.402 Y133.354 E.00873
G1 X191.402 Y147.596 E.43764
G1 X191.334 Y147.946 E.01094
G1 X191.195 Y148.185 E.00849
G1 X190.959 Y148.396 E.00973
G1 X190.741 Y148.496 E.00739
G1 X190.459 Y148.539 E.00875
G1 X176.216 Y148.539 E.43764
G1 X176.164 Y148.533 E.0016
G1 X176.132 Y148.142 F9000
G1 F900
G1 X175.963 Y148.102 E.00532
G1 X175.764 Y147.936 E.00799
G1 X175.65 Y147.698 E.00809
G1 X175.65 Y133.354 E.44077
G1 X175.687 Y133.152 E.00629
G1 X175.866 Y132.909 E.00926
G1 X176.063 Y132.809 E.00679
G1 X176.676 Y132.788 E.01884
G1 X190.459 Y132.788 E.42352
G1 X190.802 Y132.904 E.01111
G1 X190.968 Y133.108 E.0081
G1 X191.025 Y133.354 E.00775
G1 X191.025 Y147.596 E.43764
G1 X190.958 Y147.862 E.00842
G1 X190.759 Y148.076 E.00897
G1 X190.459 Y148.162 E.00959
G1 X176.216 Y148.162 E.43764
G1 X176.171 Y148.151 E.00143
G1 X176.216 Y147.785 F9000
;TYPE:Outer wall
G1 F900
G1 X176.083 Y147.73 E.00443
G1 X176.028 Y147.596 E.00443
G1 X176.028 Y133.354 E.43764
G1 X176.099 Y133.205 E.00506
G1 X176.216 Y133.165 E.00381
G1 X190.459 Y133.165 E.43763
G1 X190.647 Y133.277 E.00674
G1 X190.647 Y147.596 E.43999
G1 X190.588 Y147.734 E.0046
G1 X190.459 Y147.785 E.00426
G1 X176.256 Y147.785 E.43642
G1 E-3.5 F3000
;WIPE_START
G1 F900
G1 X176.083 Y147.73 E-.27285
G1 X176.028 Y147.596 E-.21645
G1 X176.028 Y146.923 E-1.01069
;WIPE_END
G1 X172.984 Y129.345 F9000
G1 E5 F2400
;TYPE:Inner wall
G1 F900
G1 X172.877 Y129.321 E.00337
G1 X172.558 Y129.185 E.01066
G1 X172.183 Y128.935 E.01384
G1 X171.866 Y128.615 E.01384
G1 X171.619 Y128.239 E.01384
G1 X171.451 Y127.821 E.01384
G1 X171.369 Y127.378 E.01384
G1 X171.376 Y126.927 E.01384
G1 X171.473 Y126.488 E.01384
G1 X171.654 Y126.076 E.01384
G1 X171.914 Y125.708 E.01384
G1 X172.242 Y125.399 E.01384
G1 X172.624 Y125.161 E.01384
G1 X173.116 Y124.992 E.01598
G1 X173.71 Y124.928 E.01835
G1 X174.271 Y125.023 E.0175
G1 X174.688 Y125.195 E.01384
G1 X175.062 Y125.445 E.01384
G1 X175.379 Y125.765 E.01384
G1 X175.626 Y126.141 E.01384
G1 X175.794 Y126.559 E.01384
G1 X175.876 Y127.002 E.01384
G1 X175.869 Y127.453 E.01384
G1 X175.772 Y127.892 E.01384
G1 X175.591 Y128.304 E.01384
G1 X175.28 Y128.721 E.01596
G1 X174.836 Y129.101 E.01795
G1 X174.374 Y129.326 E.0158
G1 X173.867 Y129.438 E.01597
G1 X173.416 Y129.442 E.01384
G1 X173.023 Y129.354 E.01238
G1 X172.973 Y128.948 F9000
G1 F900
G1 X172.754 Y128.863 E.0072
G1 X172.44 Y128.658 E.01154
G1 X172.172 Y128.395 E.01154
G1 X171.962 Y128.083 E.01154
G1 X171.818 Y127.737 E.01154
G1 X171.746 Y127.368 E.01154
G1 X171.747 Y126.993 E.01154
G1 X171.824 Y126.625 E.01153
G1 X171.971 Y126.28 E.01154
G1 X172.184 Y125.971 E.01154
G1 X172.454 Y125.71 E.01154
G1 X172.771 Y125.508 E.01154
G1 X173.163 Y125.366 E.01281
G1 X173.701 Y125.305 E.01665
G1 X174.142 Y125.378 E.01373
G1 X174.491 Y125.517 E.01154
G1 X174.805 Y125.722 E.01154
G1 X175.073 Y125.985 E.01154
G1 X175.283 Y126.297 E.01154
G1 X175.427 Y126.643 E.01154
G1 X175.499 Y127.012 E.01154
G1 X175.498 Y127.387 E.01154
G1 X175.421 Y127.755 E.01154
G1 X175.274 Y128.1 E.01154
G1 X175.03 Y128.438 E.0128
G1 X174.627 Y128.788 E.01642
G1 X174.214 Y128.98 E.01398
G1 X173.69 Y129.07 E.01634
G1 X173.157 Y129.019 E.01644
G1 X173.01 Y128.962 E.00485
G1 X173.109 Y128.601 F9000
;TYPE:Outer wall
G1 F900
G1 X172.951 Y128.542 E.00519
G1 X172.696 Y128.382 E.00924
G1 X172.478 Y128.175 E.00924
G1 X172.306 Y127.928 E.00924
G1 X172.186 Y127.653 E.00923
G1 X172.123 Y127.359 E.00924
G1 X172.119 Y127.058 E.00924
G1 X172.175 Y126.763 E.00924
G1 X172.288 Y126.485 E.00924
G1 X172.454 Y126.234 E.00924
G1 X172.667 Y126.022 E.00924
G1 X172.917 Y125.856 E.00924
G1 X173.21 Y125.74 E.00966
G1 X173.693 Y125.682 E.01496
G1 X174.013 Y125.732 E.00996
G1 X174.294 Y125.838 E.00924
G1 X174.549 Y125.998 E.00924
G1 X174.767 Y126.205 E.00924
G1 X174.939 Y126.452 E.00924
G1 X175.059 Y126.727 E.00924
G1 X175.122 Y127.021 E.00924
G1 X175.126 Y127.322 E.00924
G1 X175.07 Y127.617 E.00924
G1 X174.957 Y127.895 E.00924
G1 X174.781 Y128.155 E.00965
G1 X174.393 Y128.488 E.01568
G1 X174.121 Y128.615 E.00924
G1 X173.671 Y128.693 E.01403
G1 X173.232 Y128.648 E.01357
G1 X173.146 Y128.616 E.00282
G1 E-3.5 F3000
;WIPE_START
G1 F900
G1 X172.951 Y128.542 E-.31325
G1 X172.696 Y128.382 E-.45092
G1 X172.478 Y128.175 E-.45089
G1 X172.369 Y128.019 E-.28494
;WIPE_END
G1 X152.759 Y113.532 F9000
G1 E5 F2400
;TYPE:Inner wall
G1 F900
G1 X153.036 Y113.411 E.00929
G1 X167.409 Y113.411 E.44165
G1 X167.77 Y113.483 E.01131
G1 X168.076 Y113.688 E.01133
G1 X168.283 Y113.999 E.01148
G1 X168.352 Y114.354 E.01109
G1 X168.352 Y128.596 E.43764
G1 X168.3 Y128.903 E.00955
G1 X168.233 Y129.055 E.00511
G1 X168.05 Y129.288 E.00911
G1 X167.765 Y129.469 E.01037
G1 X167.409 Y129.539 E.01114
G1 X153.166 Y129.539 E.43764
G1 X152.855 Y129.486 E.00969
G1 X152.595 Y129.346 E.00908
G1 X152.407 Y129.156 E.00822
G1 X152.281 Y128.922 E.00814
G1 X152.223 Y128.596 E.01017
G1 X152.223 Y114.354 E.43764
G1 X152.281 Y114.028 E.01017
G1 X152.407 Y113.794 E.00814
G1 X152.596 Y113.603 E.00825
G1 X152.722 Y113.548 E.00424
G1 X152.761 Y113.988 F9000
G1 F900
G1 X152.824 Y113.903 E.00325
G1 X153.088 Y113.788 E.00885
G1 X167.409 Y113.788 E.44005
G1 X167.689 Y113.862 E.00891
G1 X167.893 Y114.061 E.00874
G1 X167.974 Y114.335 E.00879
G1 X167.975 Y115.33 E.03058
G1 X167.975 Y128.596 E.40764
G1 X167.903 Y128.871 E.00873
G1 X167.793 Y129.011 E.00547
G1 X167.49 Y129.162 E.01042
G1 X153.166 Y129.162 E.44012
G1 X152.979 Y129.13 E.00581
G1 X152.823 Y129.046 E.00545
G1 X152.635 Y128.792 E.00972
G1 X152.6 Y128.596 E.0061
G1 X152.6 Y114.354 E.43764
G1 X152.635 Y114.158 E.0061
G1 X152.737 Y114.02 E.00526
G1 X153.052 Y114.203 F9000
;TYPE:Outer wall
G1 F900
G1 X153.166 Y114.165 E.0037
G1 X167.409 Y114.165 E.43764
G1 X167.556 Y114.235 E.00499
G1 X167.598 Y114.354 E.00387
G1 X167.598 Y128.596 E.43764
G1 X167.537 Y128.735 E.00464
G1 X167.409 Y128.785 E.00423
G1 X153.166 Y128.785 E.43764
G1 X153.052 Y128.746 E.0037
G1 X152.978 Y128.596 E.00514
G1 X152.978 Y114.354 E.43764
G1 X153.034 Y114.239 E.00392
G1 E-3.5 F3000
;WIPE_START
G1 F900
G1 X153.166 Y114.165 E-.22698
G1 X154.015 Y114.165 E-1.27302
;WIPE_END
G1 X149.278 Y128.727 F9000
G1 E5 F2400
;TYPE:Inner wall
G1 F900
G1 X149.244 Y128.922 E.0061
G1 X149.118 Y129.156 E.00814
G1 X148.929 Y129.347 E.00825
G1 X148.489 Y129.539 E.01475
G1 X134.116 Y129.539 E.44165
G1 X133.805 Y129.486 E.00969
G1 X133.545 Y129.346 E.00908
G1 X133.357 Y129.156 E.00822
G1 X133.231 Y128.922 E.00814
G1 X133.173 Y128.596 E.01017
G1 X133.173 Y114.354 E.43764
G1 X133.231 Y114.028 E.01017
G1 X133.357 Y113.794 E.00814
G1 X133.546 Y113.603 E.00825
G1 X133.986 Y113.411 E.01475
G1 X148.359 Y113.411 E.44165
G1 X148.668 Y113.463 E.00962
G1 X148.929 Y113.603 E.00912
G1 X149.118 Y113.794 E.00825
G1 X149.244 Y114.028 E.00814
